Sources/FrostedUI/Resources/Icons.xcassets/downloadDocumentFilled24.imageset/download-document-filled-24.svg

<svg width="24" height="24" viewBox="0 0 24 24" fill="none" xmlns="http://www.w3.org/2000/svg" data-fui-icon="true">
  <path
    d="M11.9131 1.25C12.6924 1.25 13.4434 1.55328 13.999 2.09766L19.8789 7.8584C20.4349 8.40327 20.75 9.14571 20.75 9.92285V19.8379C20.75 21.4606 19.4115 22.75 17.793 22.75H6.20703C4.58856 22.75 3.25003 21.4607 3.25 19.8379V4.16211C3.25003 2.53939 4.58855 1.25 6.20703 1.25H11.9131ZM12.2588 10.75C11.8446 10.75 11.5088 11.0858 11.5088 11.5V16.3262L10.4238 15.2422C10.1309 14.9493 9.65617 14.9493 9.36328 15.2422C9.0705 15.5351 9.07043 16.0099 9.36328 16.3027L11.3643 18.3037C11.8036 18.7428 12.5158 18.7429 12.9551 18.3037L15.1289 16.1289C15.4218 15.836 15.4218 15.3613 15.1289 15.0684C14.836 14.7758 14.3611 14.7756 14.0684 15.0684L13.0088 16.1289V11.5C13.0088 11.0858 12.6729 10.7501 12.2588 10.75ZM13.5771 6.86523C13.5774 7.6305 14.2153 8.27718 15.0342 8.27734H18.1631L13.5771 3.7832V6.86523Z"
    fill="currentColor"
  />
</svg>

<svg xmlns="http://www.w3.org/2000/svg" width="24" height="24" fill="none" data-fui-icon="true" viewBox="0 0 24 24"><path fill="currentColor" d="M11.913 1.25c.78 0 1.53.303 2.086.848l5.88 5.76a2.9 2.9 0 0 1 .871 2.065v9.915c0 1.623-1.338 2.912-2.957 2.912H6.207c-1.618 0-2.957-1.29-2.957-2.912V4.162c0-1.623 1.339-2.912 2.957-2.912zm.346 9.5a.75.75 0 0 0-.75.75v4.826l-1.085-1.084a.75.75 0 1 0-1.06 1.06l2 2.002c.44.439 1.152.439 1.591 0l2.174-2.175a.75.75 0 1 0-1.06-1.06l-1.06 1.06V11.5a.75.75 0 0 0-.75-.75m1.318-3.885c0 .765.638 1.412 1.457 1.412h3.13l-4.587-4.494z"/></svg>
